X:0200
T:Sae braley as I was Kiss'd Yestreen
M:6/8
L:1/8
Q:3/8=120
I: :: ::
Z:Jack Campin * www.campin.me.uk * 2009
K:A Dorian % Aird has it as mixolydian
E   |ABA ABd|(e/f/g)B A2c|BAB GAB|BAB G2
G   |cBc ded| efe     a2g|edc Bcd|e2A A2:|
f/g/|a2A ABA| a2A     A2f|g2G GAG|BAB G2
B   |cBc ded| efe     a2g|edB ABd|e2A A2:|

